X: 8291
T: Corney Drew's
R: hornpipe
M: 4/4
K: Gmajor
|:BA|G3E GABd|edef ged2|edef (3gfe dB|BAAG AcBA|
GAFG EFGd|edef ged2|(3efg dc BGAF|1 G3F GcBA:|2 G3F G2Bd||
|:g3b a2ga|bgaf ged2|edef (3gfe dB|BAAG A2 (3Bcd|
g3b a2ga|bgaf ged2|(3efg dc BGAF|G3F G2 (3Bcd|
g3b a2ga|bgaf ged2|edef gedB|BAAG AcBA|
G3E GABd|edef ged2|(3efg dc BGAF|G3F G2BA||

